X: 1309
T: Breakdown tune
B: australian traditional tunes wiki
M:4/4
L:1/8
R: Step Dance
Q: 1/4=100
K:Gmaj
V:1 
D|"G"GDGB AGED|GDBG "C"E2 D2|"G"GDGB edBG|"D"AFAB A2zD|
|"G"GDGB AGED|GDBG "C"E2 D2|"G"GDGB edBG|"D"A2"G"G2G2zd||
|"C"ecef g2fe|"G"dBdB "C"E2D2|"G"GDGB edBG|"D"AFAB A2zd|
|"C"ecef g2fe|"G"dBdB "C"E2D2|"G"GDGB edBG|"D"A2"G"G2G2z||
% abcbook-tune_id 6342d53ad657af05da9e4fb8


% abcbook-boost 0
% abcbook-tablature 
% abcbook-transpose 
% abcbook-lastupdated 1665324358458
% abcbook-soundfonts 
% abcbook-repeats 1
% NFF Book 2022
% Bush Traditions recording played by Ian Hayden

